icons/baby_0203m.svg

<svg width="48" height="48" viewBox="0 0 48 48" fill="none" xmlns="http://www.w3.org/2000/svg">
<path fill-rule="evenodd" clip-rule="evenodd" d="M24.0005 17C27.0381 17 29.5005 14.5376 29.5005 11.5C29.5005 8.46243 27.0381 6 24.0005 6C20.9629 6 18.5005 8.46243 18.5005 11.5C18.5005 14.5376 20.9629 17 24.0005 17ZM24.0005 15C25.9335 15 27.5005 13.433 27.5005 11.5C27.5005 9.567 25.9335 8 24.0005 8C22.0675 8 20.5005 9.567 20.5005 11.5C20.5005 13.433 22.0675 15 24.0005 15ZM18.0005 28.9404C18.0005 29.0621 18.0115 29.1939 18.0334 29.3331C16.18 30.9237 15.0005 33.2526 15.0005 35.8571C15.0005 36.8138 15.1898 38.2459 15.7371 39.4775C16.2784 40.6959 17.319 42 19.1116 42C20.8566 42 22.3338 40.6268 22.3338 38.8571C22.3338 38.1042 22.0312 37.4536 21.8262 37.0127L21.7968 36.9494C21.5607 36.4397 21.4449 36.1513 21.4449 35.8571C21.4449 35.5681 21.6108 35.0855 21.9713 34.5333C22.1808 34.2124 22.4191 33.9246 22.6453 33.6983C23.114 33.8793 23.5741 34 24.0005 34C24.427 34 24.8871 33.8794 25.3557 33.6984C25.5819 33.9246 25.8202 34.2125 26.0297 34.5333C26.3902 35.0855 26.556 35.5681 26.556 35.8571C26.556 36.1432 26.4397 36.4376 26.2023 36.9562L26.1712 37.024C25.968 37.4656 25.6672 38.1198 25.6672 38.8571C25.6672 40.6268 27.1444 42 28.8894 42C30.676 42 31.7067 40.6115 32.2388 39.4108C32.7881 38.1712 33.0005 36.7442 33.0005 35.8571C33.0005 33.2527 31.821 30.9238 29.9677 29.3332C29.9896 29.194 30.0005 29.0621 30.0005 28.9404V23.8011C30.3967 23.7232 30.7985 23.6379 31.2066 23.5455C32.0387 23.3573 32.8983 23.1394 33.7956 22.8927C35.3932 22.4536 36.3323 20.8026 35.8932 19.2049C35.4541 17.6073 33.803 16.6682 32.2054 17.1073C28.8414 18.0319 26.3867 18.4245 24.013 18.4144C21.6295 18.4044 19.1624 17.9881 15.76 17.0977C14.1571 16.6783 12.5177 17.6377 12.0982 19.2406C11.6788 20.8434 12.6381 22.4829 14.241 22.9023C15.5641 23.2485 16.8064 23.5416 18.0005 23.7748V28.9404ZM33.0281 21.0291C33.1069 21.0077 33.186 20.9861 33.2655 20.9643C33.798 20.8179 34.1111 20.2675 33.9647 19.735C33.8184 19.2025 33.268 18.8894 32.7355 19.0358C29.2708 19.988 26.6242 20.4255 24.0045 20.4144C21.3816 20.4033 18.7309 19.9425 15.2536 19.0326C14.7193 18.8928 14.1729 19.2126 14.0331 19.7469C13.8932 20.2812 14.213 20.8276 14.7473 20.9674C16.3448 21.3855 17.7967 21.7177 19.1726 21.958C19.6513 22.0416 20.0005 22.4571 20.0005 22.9431V26H28.0005V22.9697C28.0005 22.4835 28.3502 22.0678 28.8291 21.9845C30.1381 21.7567 31.5178 21.4385 33.0281 21.0291ZM17.0005 35.8571C17.0005 34.0912 17.7115 32.4776 18.8857 31.273C19.2868 31.8151 19.8461 32.3434 20.5984 32.7398C20.6485 32.7662 20.6995 32.7921 20.7514 32.8173C20.5891 33.0169 20.436 33.2265 20.2966 33.4399C19.8552 34.116 19.4449 34.9943 19.4449 35.8571C19.4449 36.6327 19.7516 37.2934 19.9603 37.7431L19.9819 37.7898C20.2224 38.309 20.3338 38.5831 20.3338 38.8571C20.3338 39.4544 19.8212 40 19.1116 40C18.4906 40 17.9756 39.5899 17.5648 38.6654C17.1599 37.7542 17.0005 36.6148 17.0005 35.8571ZM27.7044 33.4399C27.565 33.2265 27.4119 33.0169 27.2496 32.8173C28.0796 32.4139 28.6875 31.8513 29.1153 31.2731C30.2895 32.4777 31.0005 34.0912 31.0005 35.8571C31.0005 36.5087 30.8301 37.6531 30.4103 38.6004C29.9734 39.5864 29.4484 40 28.8894 40C28.1798 40 27.6672 39.4544 27.6672 38.8571C27.6672 38.5955 27.7783 38.3186 28.0209 37.7885L28.0428 37.7408C28.2503 37.2885 28.556 36.6219 28.556 35.8571C28.556 34.9943 28.1458 34.116 27.7044 33.4399ZM26.1435 31.3527C27.5437 30.8201 28 29.7086 28 29.2759V27.95H20V29.2759C20 29.7086 20.4563 30.8201 21.8565 31.3527C22.0167 31.4136 22.1968 31.49 22.3586 31.5587L22.4539 31.599C22.6528 31.683 22.8453 31.7624 23.04 31.8329C23.446 31.9798 23.7627 32.05 24 32.05C24.2373 32.05 24.554 31.9798 24.96 31.8329C25.1547 31.7624 25.3472 31.683 25.5461 31.599L25.6413 31.5587M26.1435 31.3527C25.9833 31.4136 25.8032 31.49 25.6413 31.5587L26.1435 31.3527Z" fill="black"/>
</svg>

<svg
  xmlns="http://www.w3.org/2000/svg"
  width="24"
  height="24"
  viewBox="0 0 24 24"
  fill="none"
  stroke="currentColor"
  stroke-width="2"
  stroke-linecap="round"
  stroke-linejoin="round"
>
  <path
    fill-rule="evenodd"
    d="M24 17a5.5 5.5 0 1 0 0-11 5.5 5.5 0 0 0 0 11m0-2a3.5 3.5 0 1 0 0-7 3.5 3.5 0 0 0 0 7m-6 13.94q0 .184.033.393C16.18 30.923 15 33.253 15 35.857c0 .957.19 2.389.737 3.62C16.278 40.697 17.32 42 19.112 42c1.745 0 3.222-1.373 3.222-3.143 0-.753-.303-1.403-.508-1.844l-.03-.064c-.235-.51-.351-.798-.351-1.092 0-.289.166-.771.526-1.324.21-.32.448-.608.674-.835.469.181.93.302 1.355.302.427 0 .887-.12 1.356-.302.226.227.464.514.674.835.36.553.526 1.035.526 1.324 0 .286-.116.58-.354 1.1l-.03.067c-.204.442-.505 1.096-.505 1.833 0 1.77 1.477 3.143 3.222 3.143 1.787 0 2.818-1.389 3.35-2.59.55-1.239.762-2.666.762-3.553 0-2.604-1.18-4.933-3.033-6.524q.032-.208.032-.393v-5.139q.595-.117 1.207-.255a58 58 0 0 0 2.589-.653 3 3 0 1 0-1.59-5.786c-3.365.925-5.82 1.317-8.193 1.307-2.384-.01-4.85-.426-8.253-1.316a3 3 0 0 0-1.519 5.804c1.323.346 2.565.64 3.76.873zm15.028-7.91.238-.066a1 1 0 0 0-.53-1.928c-3.465.952-6.112 1.39-8.731 1.378-2.623-.01-5.274-.472-8.751-1.381a1 1 0 0 0-.507 1.934c1.598.419 3.05.75 4.426.991a1 1 0 0 1 .828.985V26h8v-3.03a1 1 0 0 1 .828-.985 47 47 0 0 0 4.2-.956M17.001 35.856c0-1.766.71-3.38 1.885-4.584a5.05 5.05 0 0 0 1.865 1.544q-.244.302-.454.623c-.442.676-.852 1.554-.852 2.417 0 .776.307 1.436.515 1.886l.022.047c.24.519.352.793.352 1.067 0 .597-.513 1.143-1.222 1.143-.621 0-1.136-.41-1.547-1.335-.405-.91-.565-2.05-.565-2.808m10.703-2.417a8 8 0 0 0-.454-.623 5.05 5.05 0 0 0 1.865-1.544c1.175 1.205 1.886 2.818 1.886 4.584 0 .652-.17 1.796-.59 2.743-.438.986-.963 1.4-1.522 1.4-.71 0-1.222-.546-1.222-1.143 0-.261.111-.538.354-1.069l.022-.047c.207-.453.513-1.12.513-1.884 0-.863-.41-1.741-.852-2.417m-1.56-2.087c1.4-.533 1.856-1.644 1.856-2.077V27.95h-8v1.326c0 .433.456 1.544 1.857 2.077.16.06.34.137.502.206l.095.04c.199.084.391.163.586.234.406.147.723.217.96.217s.554-.07.96-.217c.195-.07.387-.15.586-.234l.095-.04m.503-.206c-.16.06-.34.137-.503.206z"
    clip-rule="evenodd"
  />
</svg>
